X: 2416
T: Ballad Of The White Seal Maid
R: reel
M: 4/4
K: Gminor
B2 A3 GDD|E2 DD GG A2|B2 e2 d2 GA|B2 B2 A2 DD|
A3z B GDD|E DD GG A2|B2 A2 B3 B|e2 d2 AA G2||

